X: 1
T: Jenny Ran Away in the Mud in the Night
T: Jenny Ran Away in the Middle of the Night
O: from John Specker
R: reel
%P: AEAE
Z: 2012 John Chambers <jc:trillian.mit.edu>
S: http://www.youtube.com/watch?v=l7lxBIB6-4c (John Specker's version)
Z: 2012 John Chambers <jc:trillian.mit.edu>
M: C|
L: 1/8
K: Amix
|: E2A2 ABcA | B2G2 G4 | BAcd efed | c2A2 A4 :|
|: A2a2 a2ab | agec d2eg | f2f2 gfed | c2A2 A4 :|
